X:7071
T:Highland Mary
R:Morris
O:England
M:4/4
K:C
AB |\
c2dc BAG2|c2de f2ef|g2ga gfed|c2e2 G2AB|\
c2dc BAG2|c2de f2ef|
g2ga gfed|c2Bd c4::\
cdef g2g2|agge f2ef|
g2ga gfed c2e2 G2AB|\
c2dc BAG2|c2de f2ef|g2ga gfed|c2B2 c2:|
